public/svg/adobePhotoshop.svg

<?xml version="1.0" encoding="UTF-8"?>
<svg fill="none" viewBox="0 0 83 80" xmlns="http://www.w3.org/2000/svg">
<title>Adobe Photoshop icon</title>
<g clip-path="url(#a)">
<path d="m67.521 0h-52.992c-8.0246 0-14.53 6.5053-14.53 14.53v50.94c0 8.0246 6.5053 14.53 14.53 14.53h52.992c8.0246 0 14.53-6.5053 14.53-14.53v-50.94c0-8.0246-6.5053-14.53-14.53-14.53z" fill="#001E36"/>
<path d="m18.476 56.101v-35.172c0-0.2563 0.1101-0.3853 0.3303-0.3853 0.5865 0 1.1219-0.0086 1.9296-0.0275 0.8068-0.0181 1.6783-0.0364 2.6145-0.055 0.9358-0.0182 1.9266-0.0365 2.9724-0.0551 1.0457-0.0181 2.0823-0.0272 3.1098-0.0276 2.7883 0 5.1368 0.3486 7.0454 1.0459 1.7218 0.5824 3.2919 1.5413 4.5962 2.8071 1.1057 1.0972 1.9601 2.4212 2.5044 3.8806 0.5149 1.4203 0.7758 2.9201 0.7707 4.4309 0 2.9362-0.6789 5.3581-2.0366 7.2656-1.3667 1.9155-3.2878 3.3659-5.5043 4.1558-2.3118 0.8626-4.8808 1.1551-7.706 1.1551-0.8076 0-1.3764-0.0091-1.7064-0.0275-0.3302-0.0181-0.8255-0.0273-1.486-0.0275v10.982c0.0096 0.0673 0.0034 0.1359-0.0181 0.2004s-0.0577 0.1231-0.1058 0.1711c-0.0481 0.0481-0.1067 0.0843-0.1712 0.1058s-0.1331 0.0277-0.2004 0.0181h-6.5532c-0.2571 0-0.3853-0.1463-0.3853-0.4404zm7.434-28.952v11.472c0.4764 0.037 0.9167 0.0553 1.3209 0.055h1.8164c1.3365-0.0044 2.6642-0.2164 3.9357-0.6283 1.0904-0.3239 2.0648-0.9544 2.8071-1.8164 0.7155-0.8437 1.0733-2.0179 1.0734-3.5227 0.029-1.0648-0.248-2.1155-0.7983-3.0274-0.5784-0.8819-1.4144-1.5641-2.3943-1.954-1.2794-0.4973-2.6461-0.7313-4.0181-0.688-0.8808 0-1.6605 0.0091-2.3392 0.0274-0.6795 0.019-1.1473 0.0465-1.4036 0.0826z" fill="#31A8FF"/>
<path d="m65.631 36.534c-1.0344-0.5315-2.1361-0.9203-3.275-1.1559-1.255-0.2879-2.538-0.4356-3.8255-0.4404-0.6964-0.0188-1.3919 0.0646-2.0641 0.2478-0.4279 0.0952-0.8082 0.339-1.0734 0.688-0.1794 0.2791-0.2749 0.6039-0.2751 0.9357 0.01 0.3219 0.1261 0.6315 0.3302 0.8807 0.3215 0.3761 0.7144 0.6848 1.1558 0.9082 0.7848 0.4226 1.5935 0.7994 2.4219 1.1284 1.8473 0.6184 3.6125 1.4593 5.2566 2.5044 1.12 0.7069 2.0468 1.681 2.6971 2.8347 0.5469 1.0925 0.8207 2.3013 0.7982 3.5228 0.0329 1.6129-0.428 3.1974-1.321 4.541-0.9561 1.3639-2.284 2.4243-3.8256 3.0548-1.6702 0.7337-3.7343 1.1007-6.1922 1.1009-1.5615 0.0158-3.1204-0.1318-4.6512-0.4403-1.206-0.2212-2.3801-0.5909-3.4952-1.1009-0.1204-0.0621-0.2205-0.1572-0.2887-0.2742-0.0683-0.117-0.1018-0.251-0.0966-0.3863v-5.9446c-0.0066-0.0582 0.0027-0.1171 0.0269-0.1705 0.0243-0.0533 0.0626-0.099 0.1108-0.1323 0.0473-0.0267 0.1016-0.0384 0.1556-0.0334 0.0541 0.0049 0.1054 0.0262 0.1471 0.061 1.3169 0.7765 2.7468 1.3429 4.2382 1.6788 1.3146 0.3295 2.663 0.5049 4.0181 0.5229 1.2841 0 2.229-0.1652 2.8347-0.4954 0.2736-0.1252 0.505-0.327 0.6662-0.581s0.2453-0.5493 0.2421-0.8501c0-0.4765-0.2752-0.9351-0.8256-1.3761-0.5504-0.4403-1.6696-0.9724-3.3577-1.5963-1.7283-0.6015-3.367-1.4347-4.8713-2.4768-1.0759-0.7483-1.9619-1.738-2.587-2.8898-0.5413-1.0846-0.815-2.2831-0.7981-3.4952-0.0031-1.4564 0.397-2.8852 1.1559-4.1282 0.8652-1.3688 2.1077-2.4584 3.5778-3.1374 1.6143-0.8068 3.6325-1.2104 6.0548-1.211 1.4185-0.0114 2.8357 0.0898 4.2382 0.3027 1.0157 0.1289 2.0086 0.3974 2.9507 0.7982 0.0747 0.0214 0.1434 0.0599 0.2007 0.1124 0.0573 0.0526 0.1017 0.1177 0.1295 0.1903 0.0372 0.1344 0.0557 0.2733 0.0551 0.4128v5.5593c0.0038 0.0647-0.0095 0.1293-0.0384 0.1872-0.029 0.058-0.0727 0.1073-0.1267 0.1431-0.0736 0.0366-0.1547 0.0557-0.2369 0.0557s-0.1633-0.0191-0.2369-0.0557z" fill="#31A8FF"/>
</g>
<defs>
<clipPath id="a">
<rect width="82.051" height="80" fill="#fff"/>
</clipPath>
</defs>
</svg>

<svg width="83" height="80" viewBox="0 0 83 80" fill="none" xmlns="http://www.w3.org/2000/svg">
    <g clip-path="url(#clip0_906_1855)">
    <path d="M67.5214 0H14.5299C6.50526 0 0 6.50526 0 14.5299V65.4701C0 73.4947 6.50526 80 14.5299 80H67.5214C75.546 80 82.0513 73.4947 82.0513 65.4701V14.5299C82.0513 6.50526 75.546 0 67.5214 0Z" fill="#001E36"/>
    <path d="M18.4758 56.1007V20.9284C18.4758 20.6721 18.5859 20.5431 18.8061 20.5431C19.3926 20.5431 19.928 20.5345 20.7357 20.5156C21.5425 20.4975 22.414 20.4792 23.3502 20.4606C24.286 20.4424 25.2768 20.4241 26.3226 20.4055C27.3683 20.3874 28.4049 20.3783 29.4324 20.3779C32.2207 20.3779 34.5692 20.7265 36.4778 21.4238C38.1996 22.0062 39.7697 22.9651 41.074 24.2309C42.1797 25.3281 43.0341 26.6521 43.5784 28.1115C44.0933 29.5318 44.3542 31.0316 44.3491 32.5424C44.3491 35.4786 43.6702 37.9005 42.3125 39.808C40.9458 41.7235 39.0247 43.1739 36.8082 43.9638C34.4964 44.8264 31.9274 45.1189 29.1022 45.1189C28.2946 45.1189 27.7258 45.1098 27.3958 45.0914C27.0656 45.0733 26.5703 45.0641 25.9098 45.0639V56.0457C25.9194 56.113 25.9132 56.1816 25.8917 56.2461C25.8702 56.3106 25.834 56.3692 25.7859 56.4172C25.7378 56.4653 25.6792 56.5015 25.6147 56.523C25.5502 56.5445 25.4816 56.5507 25.4143 56.5411H18.8611C18.604 56.5411 18.4758 56.3948 18.4758 56.1007ZM25.9098 27.1482V38.62C26.3862 38.657 26.8265 38.6753 27.2307 38.675H29.0471C30.3836 38.6706 31.7113 38.4586 32.9828 38.0467C34.0732 37.7228 35.0476 37.0923 35.7899 36.2303C36.5054 35.3866 36.8632 34.2124 36.8633 32.7076C36.8923 31.6428 36.6153 30.5921 36.065 29.6802C35.4866 28.7983 34.6506 28.1161 33.6707 27.7262C32.3913 27.2289 31.0246 26.9949 29.6526 27.0382C28.7718 27.0382 27.9921 27.0473 27.3134 27.0656C26.6339 27.0846 26.1661 27.1121 25.9098 27.1482Z" fill="#31A8FF"/>
    <path d="M65.6311 36.534C64.5967 36.0025 63.495 35.6137 62.3561 35.3781C61.1011 35.0902 59.8181 34.9425 58.5306 34.9377C57.8342 34.9189 57.1387 35.0023 56.4665 35.1855C56.0386 35.2807 55.6583 35.5245 55.3931 35.8735C55.2137 36.1526 55.1182 36.4774 55.118 36.8092C55.128 37.1311 55.2441 37.4407 55.4482 37.6899C55.7697 38.066 56.1626 38.3747 56.604 38.5981C57.3888 39.0207 58.1975 39.3975 59.0259 39.7265C60.8732 40.3449 62.6384 41.1858 64.2825 42.2309C65.4025 42.9378 66.3293 43.9119 66.9796 45.0656C67.5265 46.1581 67.8003 47.3669 67.7778 48.5884C67.8107 50.2013 67.3498 51.7858 66.4568 53.1294C65.5007 54.4933 64.1728 55.5537 62.6312 56.1842C60.961 56.9179 58.8969 57.2849 56.439 57.2851C54.8775 57.3009 53.3186 57.1533 51.7878 56.8448C50.5818 56.6236 49.4077 56.2539 48.2926 55.7439C48.1722 55.6818 48.0721 55.5867 48.0039 55.4697C47.9356 55.3527 47.9021 55.2187 47.9073 55.0834V49.1388C47.9007 49.0806 47.91 49.0217 47.9342 48.9683C47.9585 48.915 47.9968 48.8693 48.045 48.836C48.0923 48.8093 48.1466 48.7976 48.2006 48.8026C48.2547 48.8075 48.306 48.8288 48.3477 48.8636C49.6646 49.6401 51.0945 50.2065 52.5859 50.5424C53.9005 50.8719 55.2489 51.0473 56.604 51.0653C57.8881 51.0653 58.833 50.9001 59.4387 50.5699C59.7123 50.4447 59.9437 50.2429 60.1049 49.9889C60.2661 49.7349 60.3502 49.4396 60.347 49.1388C60.347 48.6623 60.0718 48.2037 59.5214 47.7627C58.971 47.3224 57.8518 46.7903 56.1637 46.1664C54.4354 45.5649 52.7967 44.7317 51.2924 43.6896C50.2165 42.9413 49.3305 41.9516 48.7054 40.7998C48.1641 39.7152 47.8904 38.5167 47.9073 37.3046C47.9042 35.8482 48.3043 34.4194 49.0632 33.1764C49.9284 31.8076 51.1709 30.718 52.641 30.039C54.2553 29.2322 56.2735 28.8286 58.6958 28.828C60.1143 28.8166 61.5315 28.9178 62.934 29.1307C63.9497 29.2596 64.9426 29.5281 65.8847 29.9289C65.9594 29.9503 66.0281 29.9888 66.0854 30.0413C66.1427 30.0939 66.1871 30.159 66.2149 30.2316C66.2521 30.366 66.2706 30.5049 66.27 30.6444V36.2037C66.2738 36.2684 66.2605 36.333 66.2316 36.3909C66.2026 36.4489 66.1589 36.4982 66.1049 36.534C66.0313 36.5706 65.9502 36.5897 65.868 36.5897C65.7858 36.5897 65.7047 36.5706 65.6311 36.534Z" fill="#31A8FF"/>
    </g>
    <defs>
    <clipPath id="clip0_906_1855">
    <rect width="82.0513" height="80" fill="white"/>
    </clipPath>
    </defs>
    </svg>
